!!!!SEGMENT: pl-kk--kk-i-7--048-004_herissant-jehan--missa-fily-dei-agnus-dei.krn
!!!cenid: 16xx:859
!!!COM: Hérissant, Jehan
!!!COM-rismid: pe30105808
!!!CDT: <1550->1560
!!!CNT: French
!!!OPR: Missa Fily Dei
!!!OTL: Agnus Dei
!!!OMV: 004
!!!PDT:
!!!AGN: Sacred; Mass
!!!SMS-siglum: PL-Kk
!!!SMS-shelfmark: Kk.I.7
!!!SMS-shelfwork: 048-004 M
!!!SMS-variant:
!!!SMS-altvar:
!!!NIFC-rismid: 300258125
!!!URL-scan: http://repozytorium.nifc.pl/skany/pl-kk-nut--i-7
!!!ONB-nifc: UWAGA: C (skan 0043-0044, s.80-83), A (0127-0128, s.74-77), T(0203-0205, s.70-73), B(0292-0293, s.71-73). Części Mszy: 1. Kyrie, 2. Et in terra, 3. Sanctus, 4. Agnus Dei. "Benedictus" głosu T rozpisane na luźnej kartce włożonej między strony 72-73
!!!key:
**kern	**text	**kern	**text	**kern	**text	**kern	**text	**kern	**text
*part5	*part5	*part4	*part4	*part3	*part3	*part2	*part2	*part1	*part1
*staff5	*staff5	*staff4	*staff4	*staff3	*staff3	*staff2	*staff2	*staff1	*staff1
*Ibass	*	*Itenor	*	*Ialto	*	*Ivox	*	*Ivox	*
*I"BASSVS.	*	*I"TENOR.	*	*I"ALTVS.	*	*I"CANTVS.[2]	*	*I"CANTVS.[1]	*
*I'B	*	*I'T	*	*I'A	*	*I'S2	*	*I'S1	*
*clefF3	*	*clefC3	*	*clefC3	*	*clefC1	*	*clefC1	*
*k[b-]	*	*k[b-]	*	*k[b-]	*	*k[b-]	*	*k[b-]	*
*F:	*	*F:	*	*F:	*	*F:	*	*F:	*
*M2/1	*	*M2/1	*	*M2/1	*	*M2/1	*	*M2/1	*
*met(c|)	*	*met(c|)	*	*met(c|)	*	*met(c|)	*	*met(c|)	*
=1	=1	=1	=1	=1	=1	=1	=1	=1	=1
!LO:TX:t=P:problem:kreska pseudotaktowa	!	!LO:TX:t=P:problem:kreska pseudotaktowa	!	!	!	!	!	!	!
00r	.	0r	.	1F	A-	0ryy	.	0r	.
!	!	!	!	!	!	!	!	!	!
.	.	.	.	2A/	-gnus	.	.	.	.
.	.	.	.	2B-/	.	.	.	.	.
=2-	=2-	=2-	=2-	=2-	=2-	=2-	=2-	=2-	=2-
!	!	!	!	!	!	!	!	!LO:TX:t=P:problem:kreska pseudotaktowa	!
*	*	*	*	*2\right	*	*	*	*	*
.	.	1F	A-	2c\	.	0ryy	.	1r	.
.	.	.	.	1c	De-	.	.	.	.
!	!	!	!	!	!	!	!	!	!
.	.	2A/	.	.	.	.	.	1f	A-
!	!	!	!	!LO:TX:t=P:problem:kreska pseudotaktowa	!	!	!	!	!
.	.	2B-/	-gnus	2d\	-i	.	.	.	.
=3-	=3-	=3-	=3-	=3-	=3-	=3-	=3-	=3-	=3-
*	*	*	*	*	*ij	*	*	*2\right	*
1F	A-	1.c	De-	1f	A-	0ryy	.	2.a\	-gnus
.	.	.	.	.	.	.	.	4b-\	.
!	!	!	!	!	!	!	!	!	!
*2\right	*	*	*	*	*	*	*	*	*
2A\	.	.	.	2e\	.	.	.	2cc\	De-
2B-\	-gnus	2B-/	.	2d\	.	.	.	1dd\	.
=4-	=4-	=4-	=4-	=4-	=4-	=4-	=4-	=4-	=4-
!	!	!LO:TX:t=P:problem:kreska pseudotaktowa	!	!	!	!	!	!	!
2c\	De-	1A	-i	2e\	.	0ryy	.	.	.
2F\	.	.	.	2f\	-gnus	.	.	1cc	.
!LO:TX:t=P:problem:kreska pseudotaktowa	!	!	!	!LO:TX:t=P:problem:kreska pseudotaktowa	!	!	!	!	!
1G	.	2r	.	1d	De-	.	.	.	.
!	!	!	!	!	!	!	!	!LO:TX:t=P:problem:kreska pseudotaktowa	!
.	.	2G/	A-	.	.	.	.	2b-\	.
=5-	=5-	=5-	=5-	=5-	=5-	=5-	=5-	=5-	=5-
1.C,<	-i	2G/	-gn(us)	2c,<\	-i	0ryy	.	2cc,<\	-i
*	*ij	*	*	*	*Xij	*	*	*	*ij
.	.	2.c/	De-	1e	A-	.	.	2g/	A-
.	.	.	.	.	.	.	.	2g/	-gnus
.	.	4B-/	.	.	.	.	.	.	.
!	!	!	!	!LO:TX:t=P:problem:kreska pseudotaktowa	!	!	!	!	!
2C/	A-	4A/	.	2e\	-gn(us)	.	.	4cc\	De-
!	!	!LO:TX:t=P:problem:kreska pseudotaktowa	!	!	!	!	!	!LO:TX:t=P:problem:kreska pseudotaktowa	!
.	.	4G/	.	.	.	.	.	4b-\	.
=6-	=6-	=6-	=6-	=6-	=6-	=6-	=6-	=6-	=6-
!LO:TX:t=P:problem:kreska pseudotaktowa	!	!	!	!	!	!	!	!	!
1F	-gnus	1A	.	2.f\	De-	0ryy	.	4a/	.
.	.	.	.	.	.	.	.	4g/	.
.	.	.	.	.	.	.	.	1f	.
.	.	.	.	4e\	.	.	.	.	.
2G\	De-	2B-/	.	2d\	.	.	.	.	.
2A\	.	2c/	.	1c\	.	.	.	2e/	.
=7-	=7-	=7-	=7-	=7-	=7-	=7-	=7-	=7-	=7-
!	!	!LO:TX:t=P:problem:kreska pseudotaktowa	!	!	!	!	!	!LO:TX:t=P:problem:kreska pseudotaktowa	!
2F/	.	0A	-i,	.	.	0ryy	.	1f	-i
*	*	*	*	*	*	*	*	*	*Xij
!	!	!	!	!LO:N:vis=1.	!	!	!	!	!
2.D/	.	.	.	2.d\	.	.	.	.	.
.	.	.	.	.	.	.	.	2r	.
4E/	.	.	.	4c\	.	.	.	.	.
4F/	.	.	.	1c\	.	.	.	2f/	A-
!LO:TX:t=P:problem:kreska pseudotaktowa	!	!	!	!	!	!	!	!	!
4D/	.	.	.	.	.	.	.	.	.
=8-	=8-	=8-	=8-	=8-	=8-	=8-	=8-	=8-	=8-
4E/	.	1r	.	.	.	0ryy	.	2g/	-gnus
4F/	.	.	.	.	.	.	.	.	.
2G\	.	.	.	2B-/	.	.	.	2b-\	De-
!	!	!	!	!LO:TX:t=P:problem:kreska pseudotaktowa	!	!	!	!	!
2F/	.	2r	.	1c	-i.	.	.	2a\	.
*	*	*2\right	*	*	*	*	*	*	*
2E/	.	2c\	A-	.	.	.	.	1g\	.
=9-	=9-	=9-	=9-	=9-	=9-	=9-	=9-	=9-	=9-
2.DT</	.	2d\	-gn(us)	1r	.	0ryy	.	.	.
!	!	!	!	!	!	!	!	!LO:TX:t=P:problem:kreska pseudotaktowa	!
.	.	1f	De-	.	.	.	.	2f/	.
!LO:TX:t=P:problem:kreska pseudotaktowa	!	!	!	!	!	!	!	!	!
4D/	.	.	.	.	.	.	.	.	.
!LO:TX:t=P:problem:kreska pseudotaktowa	!	!	!	!	!	!	!	!	!
1C	-i	.	.	2r	.	.	.	2.g\	.
*	*Xij	*	*	*	*	*	*	*	*
!	!	!LO:TX:t=P:problem:kreska pseudotaktowa	!	!	!	!	!	!	!
.	.	2e\	.	2c\	A-	.	.	.	.
.	.	.	.	.	.	.	.	4a\	.
=10-	=10-	=10-	=10-	=10-	=10-	=10-	=10-	=10-	=10-
1r	.	2d\	.	2d\	-gnus	0ryy	.	2b-\	.
!	!	!	!	!LO:TX:t=P:problem:kreska pseudotaktowa	!	!	!	!LO:TX:t=P:problem:kreska pseudotaktowa	!
.	.	2c\	.	2e\	.	.	.	[<2cc\	.
2r	.	1d	.	2f\	De-	.	.	2cc\]	.
!LO:TX:t=P:problem:kreska pseudotaktowa	!	!	!	!	!	!	!	!	!
2G\	A-	.	.	2g\	.	.	.	2b-\	.
=11-	=11-	=11-	=11-	=11-	=11-	=11-	=11-	=11-	=11-
2A\	-gnus	2.c\	.	2.e\	.	0ryy	.	2cc\	.
2.c\	.	.	.	.	.	.	.	2.g/	.
!	!	!LO:TX:t=P:problem:kreska pseudotaktowa	!	!	!	!	!	!	!
.	.	4d\	.	4d\	.	.	.	.	.
.	.	2e\	.	2c\	.	.	.	.	.
4B-\	.	.	.	.	.	.	.	4a\	.
!LO:TX:t=P:problem:kreska pseudotaktowa	!	!	!	!	!	!	!	!LO:TX:t=P:problem:kreska pseudotaktowa	!
2G\	De-	2d\	.	1g\	.	.	.	2b-\	.
=12-	=12-	=12-	=12-	=12-	=12-	=12-	=12-	=12-	=12-
2A\	.	2c\	.	.	.	1ryy	.	2a\	.
!	!	!	!	!	!	!	!	!LO:SIC:v:t=custos g	!
2B-\	.	1d	.	1f	.	.	.	2f/	.
!LO:TX:t=P:problem:kreska pseudotaktowa	!	!	!	!	!	!	!	!	!
*	*	*	*	*	*	*	*	*lig	*
!	!	!	!	!	!	!	!	!LO:LB:g=original	!
1G	.	.	.	.	.	1ryy	.	1g	.
!	!	!	!	!LO:TX:t=P:problem:kreska pseudotaktowa	!	!	!	!	!
!	!	!	!	!LO:SIC:v:t=custos f	!	!	!	!	!
.	.	4c/	.	2e\	.	.	.	.	.
.	.	4B-/	.	.	.	.	.	.	.
=13-	=13-	=13-	=13-	=13-	=13-	=13-	=13-	=13-	=13-
!	!	!	!	!LO:LB:g=original	!	!	!	!	!
2F,<\	-i	2c/	.	2f,<\	-i	0ryy	.	1a	.
1c	Qui	2F/	.	2f\	Qui	.	.	.	.
*	*	*	*	*	*	*	*	*Xlig	*
!	!	!	!	!	!	!	!	!LO:TX:t=P:problem:kreska pseudotaktowa	!
.	.	1G	.	2e\	tol-	.	.	1g	-i.
!	!	!	!	!LO:TX:t=P:problem:kreska pseudotaktowa	!	!	!	!	!
1B-\	tol-	.	.	2d\	-lis	.	.	.	.
=14-	=14-	=14-	=14-	=14-	=14-	=14-	=14-	=14-	=14-
!	!	!LO:TX:t=P:problem:kreska pseudotaktowa	!	!	!	!	!	!	!
.	.	1F	-i	2f\	pec-	0ryy	.	1r	.
!LO:TX:t=P:problem:kreska pseudotaktowa	!	!	!	!	!	!	!	!	!
!LO:SIC:v:t=custos c	!	!	!	!	!	!	!	!	!
2A\	-lis	.	.	2f\	-ca-	.	.	.	.
!LO:LB:g=original	!	!	!	!	!	!	!	!	!
2c\	pec-	0r	.	2.e\	-ta	.	.	2r	.
2c\	-ca-	.	.	.	.	.	.	2cc\	Qui
.	.	.	.	4f\	.	.	.	.	.
=15-	=15-	=15-	=15-	=15-	=15-	=15-	=15-	=15-	=15-
2B-\	-ta	.	.	2d\	mun-	0ryy	.	2dd\	tol-
!	!	!	!	!	!	!	!	!LO:TX:t=P:problem:kreska pseudotaktowa	!
2A\	mun-	.	.	1f	.	.	.	2cc\	-lis
!LO:TX:t=P:problem:kreska pseudotaktowa	!	!	!	!	!	!	!	!	!
1G	-di	1r	.	.	.	.	.	2b-\	pec-
!	!	!	!	!LO:TX:t=P:problem:kreska pseudotaktowa	!	!	!	!	!
.	.	.	.	2e\	.	.	.	2g\	-ca-
=16-	=16-	=16-	=16-	=16-	=16-	=16-	=16-	=16-	=16-
2r	.	2r	.	2.f\	.	0ryy	.	2a\	-ta
*	*ij	*	*	*	*	*	*	*	*
2F\	Qui	1c	Qui	.	.	.	.	2a\	mun-
.	.	.	.	8e\L	.	.	.	.	.
.	.	.	.	8d\J	.	.	.	.	.
!	!	!	!	!	!	!	!	!LO:TX:t=P:problem:kreska pseudotaktowa	!
2C/	tol-	.	.	2e\	.	.	.	1g	-di
!LO:TX:t=P:problem:kreska pseudotaktowa	!	!	!	!	!	!	!	!	!
2G\	-lis	1B-/	tol-	2d\	.	.	.	.	.
=17-	=17-	=17-	=17-	=17-	=17-	=17-	=17-	=17-	=17-
!	!	!	!	!LO:TX:t=P:problem:kreska pseudotaktowa	!	!	!	!	!
2.F\	pec-	.	.	1f	di	0ryy	.	2r	.
!	!	!LO:SIC:v:t=custos A	!	!	!	!	!	!	!
!	!	!LO:TX:t=P:problem:kreska pseudotaktowa	!	!	!	!	!	!	!
.	.	2A,</	-lis	.	.	.	.	1cc	mi-
4E/	.	.	.	.	.	.	.	.	.
!	!	!LO:LB:g=original	!	!LO:TX:t=P:problem:kreska pseudotaktowa	!	!	!	!	!
2F\	-ca-	2A/	pec-	1r	.	.	.	.	.
2G\	-ta	2B-/	-ca-	.	.	.	.	1b-\	-se-
=18-	=18-	=18-	=18-	=18-	=18-	=18-	=18-	=18-	=18-
2E-X/	mun-	1c	-ta	2r	.	0ryy	.	.	.
!LO:TX:t=P:problem:kreska pseudotaktowa	!	!	!	!	!	!	!	!	!
2F/	.	.	.	1f	mi-	.	.	1a	-re-
!	!	!LO:TX:t=P:problem:kreska pseudotaktowa	!	!	!	!	!	!	!
2C,</	-di	1c	mun-	.	.	.	.	.	.
*	*Xij	*	*	*	*	*	*	*	*
!	!	!	!	!	!	!	!	!LO:TX:t=P:problem:kreska pseudotaktowa	!
2C/	mi-	.	.	2e\	-ſe-	.	.	2g\	-re
=19-	=19-	=19-	=19-	=19-	=19-	=19-	=19-	=19-	=19-
2D/	-se-	2F,</	-di	2d\	-re-	0ryy	.	2f/	no-
2Eny/	-re-	2G/	mi-	1c	.	.	.	2e/	.
2F/	-re	2A/	-se-	.	.	.	.	1d	.
!LO:TX:t=P:problem:kreska pseudotaktowa	!	!	!	!LO:TX:t=P:problem:kreska pseudotaktowa	!	!	!	!	!
2G\	.	2B-/	-re-	2B-/	-re	.	.	.	.
=20-	=20-	=20-	=20-	=20-	=20-	=20-	=20-	=20-	=20-
2C/	no-	2c/	-re	2A/	no-	0ryy	.	2c,</	-bis
*	*	*	*	*	*	*	*	*	*ij
2D/	.	2B-/	no-	2F,</	-bis	.	.	2f/	mi-
2C/	.	2c,</	bis	2G/	mi-	.	.	2e/	-se-
!LO:TX:t=P:problem:kreska pseudotaktowa	!	!	!	!LO:TX:t=P:problem:kreska pseudotaktowa	!	!	!	!	!
*	*	*	*ij	*	*	*	*	*	*
2F/	.	1c/	mi-	2A/	-ſe-	.	.	2f/	-re-
=21-	=21-	=21-	=21-	=21-	=21-	=21-	=21-	=21-	=21-
2E/	.	.	.	2G/	-re-	0ryy	.	2g/	-re
1F	.	1A	-se-	2.c/	.	.	.	2.a/	no-
.	.	.	.	4A/	.	.	.	4f/	.
!	!	!	!	!LO:TX:t=P:problem:kreska pseudotaktowa	!	!	!	!	!
2BB-/	.	2B-/	-re-	2d\	-re	.	.	1g\	.
=22-	=22-	=22-	=22-	=22-	=22-	=22-	=22-	=22-	=22-
2C/	.	2A/	-re	2c\	no-	0ryy	.	.	.
2D/	.	4G/	no-	2B-/	.	.	.	1f	.
.	.	4F/	.	.	.	.	.	.	.
1C	.	1G	.	1c	.	.	.	.	.
.	.	.	.	.	.	.	.	2e/	.
=23-	=23-	=23-	=23-	=23-	=23-	=23-	=23-	=23-	=23-
0F;	-bis.	0A;	-bis	0c	-bis.	0ryy	.	0f;	-bis
*	*	*	*Xij	*	*	*	*	*	*Xij
=24||	=24||	=24||	=24||	=24||	=24||	=24||	=24||	=24||	=24||
*M2/1	*	*M2/1	*	*M2/1	*	*M2/1	*	*M2/1	*
*met(c|)	*	*met(c|)	*	*met(c|)	*	*met(c|)	*	*met(c|)	*
!LO:LB:g=original	!	!	!	!LO:TX:t=P:problem:kreska pseudotaktowa	!	!LO:TX:t=P:problem:kreska pseudotaktowa	!	!	!
0r	.	0r	.	1r	.	00r	.	1.cc	A-
.	.	.	.	1.f	A-	.	.	.	.
.	.	.	.	.	.	.	.	2b-\	-gnus
=25-	=25-	=25-	=25-	=25-	=25-	=25-	=25-	=25-	=25-
!LO:TX:t=P:problem:kreska pseudotaktowa	!	!	!	!	!	!	!	!	!
1r	.	2r	.	.	.	.	.	2a\	De-
.	.	1c	A-	2e\	-gnus	.	.	2g\	.
1.F	A-	.	.	1d	De-	.	.	2a\	.
.	.	2B-/	.	.	.	.	.	2b-\	.
=26-	=26-	=26-	=26-	=26-	=26-	=26-	=26-	=26-	=26-
!	!	!	!	!LO:TX:t=P:problem:kreska pseudotaktowa	!	!	!	!	!
.	.	2A/	-gnus	1c	-i	2r	.	1cc	.
2E/	-gnus	2G/	.	.	.	1cc	A-	.	.
!	!	!	!	!	!	!	!	!LO:TX:t=P:problem:kreska pseudotaktowa	!
!	!	!	!	!	!	!	!	!LO:TX:b:i:t=à 5. Voci\n1mo.	!
1D	De-	2A/	De-	2r	.	.	.	1f	-i
*	*	*	*	*	*ij	*2\right	*	*	*
!	!	!	!	!	!	!LO:TX:t=P:problem:kreska pseudotaktowa	!	!	!
.	.	2B-/	.	1f\	A-	2b-\	-gnus	.	.
=27-	=27-	=27-	=27-	=27-	=27-	=27-	=27-	=27-	=27-
!LO:TX:t=P:problem:kreska pseudotaktowa	!	!LO:TX:t=P:problem:kreska pseudotaktowa	!	!	!	!	!	!LO:TX:t=P:problem:kreska pseudotaktowa	!
!	!	!	!	!	!	!	!	!LO:LB:g=original	!
1C	-i	1c	-i	.	.	2a\	De-	0r	.
.	.	.	.	2e\	-gnus	2g\	-i	.	.
1r	.	2r	.	1d	De-	2a\	A-	.	.
!	!	!	!	!	!	!LO:TX:t=P:problem:kreska pseudotaktowa	!	!	!
*	*	*	*ij	*	*	*	*	*	*
.	.	2G/	A-	.	.	2b-\	.	.	.
=28-	=28-	=28-	=28-	=28-	=28-	=28-	=28-	=28-	=28-
!	!	!	!	!LO:TX:t=P:problem:kreska pseudotaktowa	!	!	!	!	!
1F	A-	4A/	.	1c	-i	2cc\	.	2r	.
.	.	4G/	.	.	.	.	.	.	.
*	*	*	*	*	*	*	*	*	*ij
.	.	4A/	.	.	.	2f/	.	1cc	A-
.	.	4B-/	.	.	.	.	.	.	.
2F/	-gnus	2c\	-gnus	2r	.	2a\	.	.	.
!LO:TX:t=P:problem:kreska pseudotaktowa	!	!	!	!	!	!	!	!	!
2BB-/	.	2d\	De-	2f\	A-	2b-\	.	2b-\	-gnus
=29-	=29-	=29-	=29-	=29-	=29-	=29-	=29-	=29-	=29-
2.F/	De-	2c,<\	-i	2f\	-gnus	2cc,<\	-gnus	1.a	De-
*	*	*	*Xij	*	*	*	*	*	*
!	!	!	!	!LO:TX:t=P:problem:kreska pseudotaktowa	!	!	!	!	!
.	.	2F/	qui	2c/	De-	1cc	De-	.	.
4E/	.	.	.	.	.	.	.	.	.
2F\	.	2A/	tol-	2f,<\	-i	.	.	.	.
*	*	*	*	*	*Xij	*	*	*	*
!	!	!	!	!	!	!LO:TX:t=P:problem:kreska pseudotaktowa	!	!LO:TX:t=P:problem:kreska pseudotaktowa	!
2G\	.	2B-/	-lis	2d\	qui	2b-\	.	2g/	i
*	*	*	*	*	*	*	*	*	*Xij
=30-	=30-	=30-	=30-	=30-	=30-	=30-	=30-	=30-	=30-
2F,<\	-i	2c/	pec-	2.f\	tol-	0a	.	2r	.
!LO:TX:t=P:problem:kreska pseudotaktowa	!	!LO:TX:t=P:problem:kreska pseudotaktowa	!	!	!	!	!	!	!
2D/	qui	2d/	ca-	.	.	.	.	2f/	Qui
.	.	.	.	4f\	-lis	.	.	.	.
2.F\	tol-	2c/	-ta	2f\	pec-	.	.	2.cc\	tol-
!	!	!	!	!LO:TX:t=P:problem:kreska pseudotaktowa	!	!	!	!	!
.	.	2.f\	mun-	2f\	-ca-	.	.	.	.
4F\	-lis	.	.	.	.	.	.	4cc\	-lis
=31-	=31-	=31-	=31-	=31-	=31-	=31-	=31-	=31-	=31-
2C/	pec-	.	.	0g	-ta	2g\	.	2cc\	pec-
.	.	8e\L	.	.	.	.	.	.	.
.	.	8d\J	.	.	.	.	.	.	.
!LO:TX:t=P:problem:kreska pseudotaktowa	!	!	!	!	!	!	!	!	!
2C/	-ca-	4e\	.	.	.	1cc	.	2cc\	-ca-
.	.	4f\	.	.	.	.	.	.	.
2G\	-ta	1d	.	.	.	.	.	1dd	-ta
2G\	mun-	.	.	.	.	2b-\	.	.	.
=32-	=32-	=32-	=32-	=32-	=32-	=32-	=32-	=32-	=32-
!LO:TX:t=P:problem:kreska pseudotaktowa	!	!LO:TX:t=P:problem:kreska pseudotaktowa	!	!	!	!LO:TX:t=P:problem:kreska pseudotaktowa	!	!	!
0C	-di	1c	-di	1g	mun-	1cc	-i	1ee	mun-
!	!	!	!	!LO:TX:t=P:problem:kreska pseudotaktowa	!	!	!	!LO:TX:t=P:problem:kreska pseudotaktowa	!
.	.	1r	.	1e	-di	2r	.	00cc	-di
.	.	.	.	.	.	2c/	Qui	.	.
=33-	=33-	=33-	=33-	=33-	=33-	=33-	=33-	=33-	=33-
1r	.	2r	.	0r	.	2.f/	tol-	.	.
.	.	1F	qui	.	.	.	.	.	.
.	.	.	.	.	.	4f/	-lis	.	.
2r	.	.	.	.	.	2f/	pec-	.	.
!LO:TX:t=P:problem:kreska pseudotaktowa	!	!	!	!	!	!	!	!	!
*	*ij	*	*	*	*	*	*	*	*
2C/	qui	2.c\	tol-	.	.	2g/	-ca-	.	.
=34-	=34-	=34-	=34-	=34-	=34-	=34-	=34-	=34-	=34-
!	!	!	!	!LO:TX:t=P:problem:kreska pseudotaktowa	!	!	!	!	!
2F\	tol-	.	.	1r	.	2a\	-ta	.	.
.	.	4c\	-lis	.	.	.	.	.	.
2F\	-lis	2c\	p(ec-	.	.	1cc	mun-	.	.
2F\	pec-	2d\	-ca)-	2r	.	.	.	1r	.
!LO:TX:t=P:problem:kreska pseudotaktowa	!	!LO:TX:t=P:problem:kreska pseudotaktowa:między nutą a kropką	!	!	!	!	!	!	!
2G\	-ca-	2.e\	-ta	2G/	qui	2b-\	.	.	.
=35-	=35-	=35-	=35-	=35-	=35-	=35-	=35-	=35-	=35-
!	!	!	!	!	!	!LO:TX:t=P:problem:kreska pseudotaktowa	!	!	!
2A\	-ta	.	.	2.c/	tol-	1cc	-di	2r	.
!	!	!LO:LB:g=original	!	!	!	!	!	!	!
.	.	4d\	.	.	.	.	.	.	.
*	*	*	*	*	*	*	*	*	*ij
2A\	mun-	2e\	mun-	.	.	.	.	2c/	Qui
.	.	.	.	4c/	-lis	.	.	.	.
!	!	!LO:TX:t=P:problem:kreska pseudotaktowa	!	!	!	!	!	!	!
2F,<\	-di	1f	-di	2c\	pec-	0r	.	2.f/	tol-
*	*Xij	*	*	*	*	*	*	*	*
!LO:SIC:v:t=custos B	!	!	!	!	!	!	!	!	!
!LO:TX:t=P:problem:kreska pseudotaktowa	!	!	!	!LO:TX:t=P:problem:kreska pseudotaktowa	!	!	!	!	!
!LO:TX:i:b:t=à 5 Vocib(us)\n2.CCantis.	!	!	!	!	!	!	!	!	!
2F\	qui	.	.	2c\	-ca-	.	.	.	.
.	.	.	.	.	.	.	.	4f/	-lis
=36-	=36-	=36-	=36-	=36-	=36-	=36-	=36-	=36-	=36-
!LO:LB:g=original	!	!	!	!	!	!	!	!	!
2.B-\	tol-	2r	.	1d	-ta	.	.	2f/	pec-
!	!	!	!	!	!	!	!	!LO:TX:t=P:problem:kreska pseudotaktowa	!
.	.	2G/	qui	.	.	.	.	2g/	-ca-
4B-\	-lis	.	.	.	.	.	.	.	.
2A\	pec-	2.c/	tol-	1e	mun-	2r	.	1.a	-ta
!	!	!	!	!	!	!LO:TX:t=P:problem:kreska pseudotaktowa	!	!	!
2A\	-ca-	.	.	.	.	2c/	qui	.	.
.	.	4c/	-lis	.	.	.	.	.	.
=37-	=37-	=37-	=37-	=37-	=37-	=37-	=37-	=37-	=37-
!LO:TX:t=P:problem:kreska pseudotaktowa	!	!	!	!LO:TX:t=P:problem:kreska pseudotaktowa	!	!	!	!	!
1F	-ta	2c/	pec-	1f	-di	2.f/	tol-	.	.
!	!	!	!	!	!	!	!	!LO:TX:t=P:problem:kreska pseudotaktowa	!
.	.	2c/	-ca-	.	.	.	.	[<2cc\	mun-
.	.	.	.	.	.	4f/	-lis	.	.
!	!	!	!	!	!	!	!	!LO:N:xstem:cue	!
1B-	pec-	1d	.	2r	.	2f/	pec-	4cc\]	.
.	.	.	.	.	.	.	.	4b-\	.
!	!	!	!	!	!	!LO:TX:b:i:t=2do.	!	!	!
!	!	!	!	!	!	!LO:TX:t=P:problem:kreska pseudotaktowa	!	!	!
!	!	!	!	!	!	!LO:SIC:v:t=custos a	!	!	!
.	.	.	.	2G/	qui	2g/	-ca-	2b-\	.
=38-	=38-	=38-	=38-	=38-	=38-	=38-	=38-	=38-	=38-
!	!	!	!	!	!	!LO:LB:g=original	!	!LO:TX:t=P:problem:kreska pseudotaktowa	!
2.A\	-ca-	1e	-ta	2.c\	tol-	2a\	-ta	1cc	-di
*	*	*	*	*	*	*	*	*	*Xij
.	.	.	.	.	.	2a\	mun-	.	.
4G\	.	.	.	4c\	-lis	.	.	.	.
2F\	.	2.f\	mun-	2c\	pec-	2a,<\	-di	1r	.
!LO:TX:t=P:problem:kreska pseudotaktowa	!	!	!	!LO:TX:t=P:problem:kreska pseudotaktowa	!	!LO:TX:t=P:problem:kreska pseudotaktowa	!	!	!
2B-\	.	.	.	2d\	-ca-	2f/	qui	.	.
.	.	8e\L	.	.	.	.	.	.	.
!	!	!LO:TX:t=P:problem:kreska pseudotaktowa	!	!	!	!	!	!	!
.	.	8d\J	.	.	.	.	.	.	.
=39-	=39-	=39-	=39-	=39-	=39-	=39-	=39-	=39-	=39-
4A\	-ta	4c/	.	2e\	-ta	2.cc\	tol-	2r	.
4G\	.	4B-/	.	.	.	.	.	.	.
4F/	.	2.c/	.	2f\	mun-	.	.	2c/	qui
4E/	.	.	.	.	.	4cc\	-lis	.	.
4D/	.	.	.	2F,</	-di	2dd\	pec-	2.f/	tol-
4C/	.	4B-/	.	.	.	.	.	.	.
2D/	mun-	4B-/	.	2f\	pec-	2dd\	-ca-	.	.
!	!	!LO:TX:t=P:problem:kreska pseudotaktowa	!	!	!	!	!	!	!
.	.	4A/	.	.	.	.	.	4f/	-lis
=40-	=40-	=40-	=40-	=40-	=40-	=40-	=40-	=40-	=40-
!LO:TX:t=P:problem:kreska pseudotaktowa	!	!	!	!	!	!	!	!	!
1C	-di	1c	.	2e\	-ca-	2ee,<\	-ta	2g\	pec-
!	!	!	!	!	!	!LO:TX:t=P:problem:kreska pseudotaktowa	!	!	!
.	.	.	.	2e\	-ta	2cc\	mun-	2g\	-ca-
1r	.	2F/	.	4f\	mun-	(4dd\	.	2a\	-ta
.	.	.	.	4e\	.	4cc\	.	.	.
.	.	2A/	.	4d\	.	1cc\)	.	2f/	mun-
.	.	.	.	4c\	.	.	.	.	.
=41-	=41-	=41-	=41-	=41-	=41-	=41-	=41-	=41-	=41-
!	!	!LO:TX:t=P:problem:kreska pseudotaktowa	!	!	!	!	!	!	!
2r	.	1G	-di	1d	.	.	.	1g	.
!LO:TX:t=P:problem:kreska pseudotaktowa	!	!	!	!	!	!	!	!	!
2G\	Do-	.	.	.	.	2b-\	.	.	.
!	!	!	!	!LO:TX:t=P:problem:kreska pseudotaktowa	!	!LO:TX:t=P:problem:kreska pseudotaktowa	!	!LO:TX:t=P:problem:kreska pseudotaktowa	!
2.A\	-na	2r	.	1c	-di	1cc	-di	1e	-di
.	.	2c/	Do-	.	.	.	.	.	.
4G\	.	.	.	.	.	.	.	.	.
=42-	=42-	=42-	=42-	=42-	=42-	=42-	=42-	=42-	=42-
2A\	no-	2c/	-na	2r	.	0r	.	1r	.
!LO:TX:t=P:problem:kreska pseudotaktowa	!	!	!	!	!	!	!	!	!
2B-\	-bis	2B-/	no-	2d\	Do-	.	.	.	.
2.c\	pa-	4A/	-bis	2.e\	.	.	.	2r	.
.	.	4B-/	.	.	.	.	.	.	.
.	.	4c/	.	.	.	.	.	2g\	Do-
!	!	!LO:TX:t=P:problem:kreska pseudotaktowa	!	!	!	!	!	!	!
4B-\	.	4d/	.	4d\	-na	.	.	.	.
=43-	=43-	=43-	=43-	=43-	=43-	=43-	=43-	=43-	=43-
!	!	!	!	!	!	!LO:TX:t=P:problem:kreska pseudotaktowa	!	!	!
4A\	.	1.c	pa-	2e\	no-	1r	.	2.a\	.
4G\	.	.	.	.	.	.	.	.	.
4F/	.	.	.	1f	.	.	.	.	.
!LO:TX:t=P:problem:kreska pseudotaktowa	!	!	!	!	!	!	!	!	!
4E/	.	.	.	.	.	.	.	4g\	-na
2F\	.	.	.	.	.	2r	.	2a\	no-
!	!	!	!	!	!	!	!	!LO:TX:t=P:problem:kreska pseudotaktowa	!
2G\	.	2B-/	.	4d\	.	2g\	do-	2b-\	-bis
!	!	!	!	!LO:TX:t=P:problem:kreska pseudotaktowa	!	!	!	!	!
.	.	.	.	4e\	.	.	.	.	.
=44-	=44-	=44-	=44-	=44-	=44-	=44-	=44-	=44-	=44-
!LO:TX:t=P:problem:kreska pseudotaktowa	!	!LO:TX:t=P:problem:kreska pseudotaktowa	!	!	!	!	!	!LO:LB:g=original	!
1F	-cem	1A	-cem	(4f\	.	2.a\	-na	8cc\L	pa-
.	.	.	.	.	.	.	.	8b-\	.
.	.	.	.	4g\)	.	.	.	8a\	.
.	.	.	.	.	.	.	.	8g\J	.
.	.	.	.	4f\	.	.	.	1f	.
!	!	!	!	!	!	!LO:TX:t=P:problem:kreska pseudotaktowa	!	!	!
.	.	.	.	4e\	.	4g\	no-	.	.
1r	.	2r	.	4d\	.	2a,<\	-bis	.	.
.	.	.	.	4c\	.	.	.	.	.
!	!	!	!	!LO:TX:t=P:problem:kreska pseudotaktowa	!	!	!	!LO:TX:t=P:problem:kreska pseudotaktowa	!
*	*	*	*ij	*	*	*	*	*	*
.	.	2G/	Do-	2d\	.	2b-\	pa-	2g/	.
=45-	=45-	=45-	=45-	=45-	=45-	=45-	=45-	=45-	=45-
!	!	!	!	!	!	!LO:TX:t=P:problem:kreska pseudotaktowa	!	!	!
2r	.	2.A/	-na	2c\	.	1cc	-cem	2e,</	-cem
2F\	do-	.	.	2f\	-bis	.	.	2cc\	pa-
.	.	4G/	.	.	.	.	.	.	.
!	!	!	!	!	!	!LO:TX:t=P:problem:kreska pseudotaktowa	!	!	!
2F\	-na	2A/	no-	2f\	pa-	1r	.	2cc\	.
!LO:TX:t=P:problem:kreska pseudotaktowa	!	!	!	!	!	!	!	!	!
2G\	no-	2B-/	-bis	2d\	.	.	.	2b-\	.
=46-	=46-	=46-	=46-	=46-	=46-	=46-	=46-	=46-	=46-
!	!	!	!	!LO:TX:t=P:problem:kreska pseudotaktowa	!	!	!	!LO:TX:t=P:problem:kreska pseudotaktowa	!
2.F\	-bis	4c/	pa-	1f	-cem	2r	.	1a	-cem
.	.	4B-/	.	.	.	.	.	.	.
*	*	*	*	*	*	*	*ij	*	*
.	.	4A/	.	.	.	2cc\	do-	.	.
4G\	.	4G/	.	.	.	.	.	.	.
2A\	pa-	2F/	.	1r	.	2cc\	-na	1r	.
!LO:TX:t=P:problem:kreska pseudotaktowa	!	!	!	!	!	!LO:TX:t=P:problem:kreska pseudotaktowa	!	!	!
2B-\	.	2G/	.	.	.	2b-\	no-	.	.
=47-	=47-	=47-	=47-	=47-	=47-	=47-	=47-	=47-	=47-
!	!	!LO:TX:t=P:problem:kreska pseudotaktowa	!	!	!	!	!	!	!
*	*	*	*	*	*	*	*	*	*ij
4c\	.	1F	-cem	2r	.	2a,<\	-bis	1cc	pa-
*	*	*	*Xij	*	*	*	*	*	*
4B-\	.	.	.	.	.	.	.	.	.
4A\	.	.	.	1f	do-	2.a\	pa-	.	.
!LO:TX:t=P:problem:kreska pseudotaktowa	!	!	!	!	!	!	!	!	!
!LO:SIC:v:t=custos F	!	!	!	!	!	!	!	!	!
4G\	.	.	.	.	.	.	.	.	.
!LO:LB:g=original	!	!	!	!	!	!	!	!	!
4F/	.	2r	.	.	.	.	.	2.cc\	.
4E/	.	.	.	.	.	4g/	.	.	.
2F/	.	2c/	do-	2f\	-na	4a/	.	.	.
.	.	.	.	.	.	4f/	.	4b-\	.
=48-	=48-	=48-	=48-	=48-	=48-	=48-	=48-	=48-	=48-
*	*	*	*	*	*	*lig	*	*	*
2C/	-cem	2c/	-na	2e\	no-	1g	.	2cc\	.
!LO:TX:t=P:problem:kreska pseudotaktowa	!	!	!	!	!	!	!	!	!
2r	.	2B-/	no-	2d\	-bis	.	.	2dd\	.
!	!	!	!	!	!	!	!	!LO:TX:t=P:problem:kreska pseudotaktowa	!
1r	.	2A/	-bis	2e\	pa-	1a	.	0cc	-cem
.	.	2F/	pa-	1f\	.	.	.	.	.
*	*	*	*	*	*	*Xlig	*	*	*Xij
=49-	=49-	=49-	=49-	=49-	=49-	=49-	=49-	=49-	=49-
!	!	!LO:TX:t=P:problem:kreska pseudotaktowa	!	!	!	!LO:TX:t=P:problem:kreska pseudotaktowa	!	!	!
!	!	!LO:SIC:v:t=custos F	!	!	!	!	!	!	!
2r	.	1c	.	.	.	1g	-cem	.	.
*	*ij	*	*	*	*	*	*Xij	*	*
!	!	!	!	!LO:TX:t=P:problem:kreska pseudotaktowa	!	!	!	!	!
!LO:TX:t=P:problem:kreska pseudotaktowa	!	!	!	!LO:SIC:v:t=custos f	!	!	!	!	!
2c\	do-	.	.	2e\	.	.	.	.	.
!	!	!LO:PB:g=original	!	!LO:LB:g=original	!	!	!	!	!
2.c\	-na	4F/	.	2f,<\	-cem	0r	.	2r	.
.	.	4G/	.	.	.	.	.	.	.
.	.	4A/	.	4F/	pa-	.	.	2cc\	do-
!LO:TX:t=P:problem:kreska pseudotaktowa	!	!	!	!	!	!	!	!	!
4B-\	.	4B-/	.	4G/	.	.	.	.	.
=50-	=50-	=50-	=50-	=50-	=50-	=50-	=50-	=50-	=50-
4A\	no-	4c/	.	4A/	.	.	.	2.cc\	-na
4G\	.	4B-/	.	4B-/	.	.	.	.	.
2.F/	.	4A/	.	2.c\	.	.	.	.	.
!	!	!LO:TX:t=P:problem:kreska pseudotaktowa	!	!	!	!	!	!	!
.	.	4G/	.	.	.	.	.	4b-\	no-
.	.	2F/	.	.	.	1cc	do-	2a\	-bis
4E/	.	.	.	4d\	.	.	.	.	.
!LO:TX:t=P:problem:kreska pseudotaktowa	!	!	!	!LO:TX:t=P:problem:kreska pseudotaktowa	!	!	!	!	!
2E/	-bis	2G/	.	2e\	.	.	.	2g/	pa-
=51-	=51-	=51-	=51-	=51-	=51-	=51-	=51-	=51-	=51-
!	!	!	!	!	!	!	!	!LO:TX:t=P:problem:kreska pseudotaktowa	!
2F/	.	2A/	.	2c/	.	2.cc\	-na	1f	-cem
!	!	!LO:TX:t=P:problem:kreska pseudotaktowa	!	!	!	!	!	!	!
1F	pa-	2c/	.	1f	.	.	.	.	.
.	.	.	.	.	.	4b-\	no-	.	.
.	.	2.c/	.	.	.	2a\	-bis	0r	.
2C/	.	.	.	2e\	.	2.g/	pa-	.	.
.	.	4B-/	.	.	.	.	.	.	.
=52-	=52-	=52-	=52-	=52-	=52-	=52-	=52-	=52-	=52-
1D	.	2A/	.	2d\	.	.	.	.	.
.	.	.	.	.	.	4f/	.	.	.
!	!	!	!	!LO:TX:t=P:problem:kreska pseudotaktowa	!	!	!	!	!
.	.	4G/	.	2B-/	-cem	1f	.	.	.
.	.	4F/	.	.	.	.	.	.	.
!LO:TX:t=P:problem:kreska pseudotaktowa	!	!	!	!	!	!	!	!	!
1C	-cem	1G	.	2c\	Do-	.	.	2r	.
*	*Xij	*	*	*	*	*	*	*	*
!	!	!	!	!	!	!	!	!LO:TX:t=P:problem:kreska pseudotaktowa	!
.	.	.	.	2c\	-na	2e/	.	2g/	Do-
=53-	=53-	=53-	=53-	=53-	=53-	=53-	=53-	=53-	=53-
!	!	!LO:TX:t=P:problem:kreska pseudotaktowa	!	!	!	!	!	!	!
2r	.	1F	-cem	2c\	no-	[0fl	-cem	2.a\	-na
2F/	Do-	.	.	2F/	-bis	.	.	.	.
.	.	.	.	.	.	.	.	4g\	no-
2F/	-na	2r	.	2c\	pa-	.	.	2a\	-bis
!LO:TX:t=P:problem:kreska pseudotaktowa	!	!	!	!	!	!	!	!LO:TX:t=P:problem:kreska pseudotaktowa	!
2BB-/	no-	2F/	Do-	2d\	.	.	.	2b-\	.
=54-	=54-	=54-	=54-	=54-	=54-	=54-	=54-	=54-	=54-
!	!	!	!	!LO:TX:t=P:problem:kreska pseudotaktowa	!	!	!	!	!
*	*	*	*	*	*	*	*	*lig	*
2.F/	.	2.A/	-na	1c	-cem	0f_	.	1cc	pa-
4E/	-bis	4G/	.	.	.	.	.	.	.
2D/	pa-	2A/	no-	2r	.	.	.	1dd	.
!LO:TX:t=P:problem:kreska pseudotaktowa	!	!	!	!	!	!	!	!	!
2BB-/	.	2B-/	-bis	2F/	pa-	.	.	.	.
!	!	!	!	!	!	!	!	!	!
*	*	*	*	*	*	*	*	*Xlig	*
=55-	=55-	=55-	=55-	=55-	=55-	=55-	=55-	=55-	=55-
1.F	.	1c	pa-	2.A/	.	0f_	.	1.cc	.
.	.	.	.	4G/	.	.	.	.	.
.	.	[1F;l	-cem.	2A/	.	.	.	.	.
!LO:TX:t=P:problem:kreska pseudotaktowa	!	!	!	!	!	!	!	!	!
2BB-/	.	.	.	2B-/	.	.	.	1b-\	.
=56-	=56-	=56-	=56-	=56-	=56-	=56-	=56-	=56-	=56-
0F;	-cem	0F]	.	>0c;	-cem.	0f]	.	.	.
.	.	.	.	.	.	.	.	4a/	.
.	.	.	.	.	.	.	.	4g/	.
!	!	!	!	!	!	!	!	!LO:N:vis=0	!
.	.	.	.	.	.	.	.	1a;	-cem.
==	==	==	==	==	==	==	==	==	==
*-	*-	*-	*-	*-	*-	*-	*-	*-	*-
!!!RDF**kern: > = above
!!!RDF**kern: < = below
!!!RDF**kern: l = terminal long
!!!system-decoration: [(s1,s2,s3,s4,s5)]
!!!EED: Andrzej Borzym
!!!EST: 2021-03-17
!!!AIN: 1 alto 1 bass 1 tenor 2 vox
!!!ENC: Berenika Jozajtis
!!!END: 2021-02-28
